X: 193
T: Shouliede gege huilai
%%abc-version 2.0
%%abcx-abcm2ps-target-version 5.9.1 (29 Sep 2008)
%%abc-creator hum2abc beta
%%abcx-conversion-date 2013/10/02 07:44:28
%%abc-edited-by Helmut Schaffrath
%%humdrum-veritas 484271633
%%humdrum-veritas-data 2806138078
%%continueall 1
%%barnumbers 0
L: 1/8
M: 4/4
K: E
B e G/ B/ F/ G/ E GB,2 [I:setbarnb 1]| 
B e G/ B/ F/ G/B4 | 
B e G B F G (3E/ F/ G/ C/ B,/ | 
G, B, C EB,4 | 
G,2B,> C EE2C/ B,/ | 
G,2B, CE4 | 
B e G F E G C/ B,/ G, | 
B,2C EB,4 | 
B e G/ B/ F/ G/ E GB,2 | 
B e G/ B/ F/ G/B4 | 
B e G B F G (3E/ F/ G/ C/ B,/ | 
G, B, C EB,4 | 
G,2B,> C EE2C/ B,/ | 
G,2B, CE4 | 
B e G F E G C/ B,/ G, | 
B,2C EB,4 | 
B e G/ B/ F/ G/ E GB,2 | 
B e G/ B/ F/ G/B4 | 
B e G B F G (3E/ F/ G/ C/ B,/ | 
G, B, C EB,4 | 
G,2B,> C EE2C/ B,/ | 
C2E> GF4 | 
B e G F E G C/ B,/ G, | 
B e G F/ G/B4 |]  



